X:77
T: Graf und Nonne (Die Nonne)
N: Q0155N
O: Mitteleuropa, Deutschland (BRD) , Nordrhein - Westfalen, Muenster
N: Anhaengsel an der dritten Zeile.
R: Ballade, Standesunterschied, vergebliche Werbung, Liebe, Klage
M: 6/8
L: 1/16
K: G
D2 | G4D2B,2D2B2 | B2A2z6
D2 | D2F2A2e2d2c2 | B6z4
GB | d4d2d2c2B2 | c2A2D2E2D2
D2 | D2F2A2e2d2c2 | B4z6

